icons-dark/actions/22/draw-path.svg

<?xml version="1.0" encoding="UTF-8" standalone="no"?>
<!-- Created with Inkscape (http://www.inkscape.org/) -->

<svg
   xmlns:dc="http://purl.org/dc/elements/1.1/"
   xmlns:cc="http://creativecommons.org/ns#"
   xmlns:rdf="http://www.w3.org/1999/02/22-rdf-syntax-ns#"
   xmlns:svg="http://www.w3.org/2000/svg"
   xmlns="http://www.w3.org/2000/svg"
   xmlns:sodipodi="http://sodipodi.sourceforge.net/DTD/sodipodi-0.dtd"
   xmlns:inkscape="http://www.inkscape.org/namespaces/inkscape"
   width="22"
   height="22"
   id="svg2"
   version="1.1"
   inkscape:version="0.48+devel r"
   sodipodi:docname="draw-path.svg">
  <defs
     id="defs4" />
  <sodipodi:namedview
     id="base"
     pagecolor="#ffffff"
     bordercolor="#666666"
     borderopacity="1.0"
     inkscape:pageopacity="0.0"
     inkscape:pageshadow="2"
     inkscape:zoom="23.069359"
     inkscape:cx="11.368337"
     inkscape:cy="11.399732"
     inkscape:document-units="px"
     inkscape:current-layer="layer1"
     showgrid="true"
     width="0px"
     height="0px"
     fit-margin-top="0"
     fit-margin-left="0"
     fit-margin-right="0"
     fit-margin-bottom="0"
     showguides="true"
     inkscape:window-width="1366"
     inkscape:window-height="668"
     inkscape:window-x="-2"
     inkscape:window-y="23"
     inkscape:window-maximized="1"
     inkscape:showpageshadow="false">
    <inkscape:grid
       type="xygrid"
       id="grid4124" />
    <sodipodi:guide
       position="3,19.000017"
       orientation="16,0"
       id="guide4228" />
    <sodipodi:guide
       position="3,3.0000174"
       orientation="0,16"
       id="guide4230" />
    <sodipodi:guide
       position="19,3.0000174"
       orientation="-16,0"
       id="guide4232" />
    <sodipodi:guide
       position="19,19.000017"
       orientation="0,-16"
       id="guide4234" />
    <sodipodi:guide
       position="2,20.000017"
       orientation="18,0"
       id="guide4236" />
    <sodipodi:guide
       position="2,2.0000174"
       orientation="0,18"
       id="guide4238" />
    <sodipodi:guide
       position="20,2.0000174"
       orientation="-18,0"
       id="guide4240" />
    <sodipodi:guide
       position="20,20.000017"
       orientation="0,-18"
       id="guide4242" />
    <sodipodi:guide
       position="3,7"
       orientation="-12,12"
       id="guide4264" />
    <sodipodi:guide
       position="7,3"
       orientation="-12,12"
       id="guide4270" />
    <sodipodi:guide
       position="19,15"
       orientation="12,0"
       id="guide4272" />
    <sodipodi:guide
       position="19,3"
       orientation="0,-12"
       id="guide4274" />
    <sodipodi:guide
       position="15,19"
       orientation="0,4"
       id="guide4280" />
    <sodipodi:guide
       position="19,19"
       orientation="4,0"
       id="guide4282" />
    <sodipodi:guide
       position="7.003266,27.003896"
       orientation="0.70710678,-0.70710678"
       id="guide4302" />
    <sodipodi:guide
       position="18.292892,14.2929"
       orientation="-0.7071,0.707107"
       id="guide4316" />
    <sodipodi:guide
       position="18.999999,15"
       orientation="-4,-4.000033"
       id="guide4318" />
    <sodipodi:guide
       position="14.999966,19"
       orientation="0.7071,-0.707107"
       id="guide4320" />
    <sodipodi:guide
       position="14.292859,18.2929"
       orientation="4,4.000033"
       id="guide4322" />
    <sodipodi:guide
       position="16.292892,12.2929"
       orientation="-0.7071,0.707107"
       id="guide4336" />
    <sodipodi:guide
       position="16.999999,13"
       orientation="-4,-4.000033"
       id="guide4338" />
    <sodipodi:guide
       position="12.999966,17"
       orientation="0.7071,-0.707107"
       id="guide4340" />
    <sodipodi:guide
       position="12.292859,16.2929"
       orientation="4,4.000033"
       id="guide4342" />
    <sodipodi:guide
       position="18.292892,15.703912"
       orientation="11.996776,-11.996776"
       id="guide4348" />
    <sodipodi:guide
       position="6.2961161,3.7071356"
       orientation="0.70710678,0.70710678"
       id="guide4350" />
    <sodipodi:guide
       position="7.0032228,3.0000288"
       orientation="-11.996776,11.996776"
       id="guide4352" />
    <sodipodi:guide
       position="18.999999,14.996805"
       orientation="-0.70710678,-0.70710678"
       id="guide4354" />
    <sodipodi:guide
       position="3.7070884,6.2961632"
       orientation="-11.996776,11.996776"
       id="guide4356" />
    <sodipodi:guide
       position="15.703864,18.292939"
       orientation="-0.70710678,-0.70710678"
       id="guide4358" />
    <sodipodi:guide
       position="14.996758,19.000046"
       orientation="11.996776,-11.996776"
       id="guide4360" />
    <sodipodi:guide
       position="2.9999817,7.00327"
       orientation="0.70710678,0.70710678"
       id="guide4362" />
  </sodipodi:namedview>
  <metadata
     id="metadata7">
    <rdf:RDF>
      <cc:Work
         rdf:about="">
        <dc:format>image/svg+xml</dc:format>
        <dc:type
           rdf:resource="http://purl.org/dc/dcmitype/StillImage" />
        <dc:title />
      </cc:Work>
    </rdf:RDF>
  </metadata>
  <g
     inkscape:label="Capa 1"
     inkscape:groupmode="layer"
     id="layer1"
     transform="translate(0,-1030.3622)">
    <path
       style="opacity:1;fill:#f2f2f2;fill-opacity:1;stroke:none"
       d="M 3 3 L 3 6 L 4 6 L 4 13.996094 L 3.0039062 14.992188 L 3 14.992188 L 3 19 L 4 19 L 6 19 L 7.0078125 19 L 7.0078125 18.996094 L 8.0078125 17.996094 L 16 17.996094 L 16 19 L 19 19 L 19 16 L 16 16 L 16 17 L 9.0039062 17 L 19 7.0039062 L 18.998047 7.0019531 L 19 7 L 15 3 L 14.998047 3.0019531 L 14.996094 3 L 5 12.996094 L 5 6 L 6 6 L 6 3 L 3 3 z M 4 4 L 5 4 L 5 5 L 4 5 L 4 4 z M 14.998047 4.4121094 L 17.587891 7.0019531 L 15.587891 9.0019531 L 8.7949219 15.794922 L 8 15 L 6.2050781 13.205078 L 12.998047 6.4121094 L 14.998047 4.4121094 z M 17 17 L 18 17 L 18 18 L 17 18 L 17 17 z "
       transform="translate(0,1030.3622)"
       id="rect4132" />
  </g>
</svg>

<svg xmlns="http://www.w3.org/2000/svg" viewBox="0 0 22 22">
  <defs id="defs3051">
    <style type="text/css" id="current-color-scheme">
      .ColorScheme-Text {
        color:#f2f2f2
      }
      </style>
  </defs>
 <path 
    style="fill:currentColor;fill-opacity:1;stroke:none" 
	d="m3 3v3h1v7.996094l-.996094.996094h-.003906v4.00781h1 2 1.00781v-.003906l1-1h7.992188v1.00391h3v-3h-3v1h-6.996094l9.996094-9.996094-.001953-.001953.001953-.001953-4-4-.001953.001953-.001953-.001953-9.996094 9.996094v-6.996094h1v-3h-3m1 1h1v1h-1v-1m10.998047.412109l2.589844 2.589844-2 2-6.792969 6.792969-.794922-.794922-1.794922-1.794922 6.792969-6.792969 2-2m2.00195 12.587891h1v1h-1v-1"
    class="ColorScheme-Text"
    />  
</svg>
